X: 720
T: HAVE A DRINK ON ME
M:6/8
L:1/8
B:O'NEILL'S 720
N:"collected by F. O'Neill"
Z:Transcribed by A. LEE WORMAN
K:G
d/c/|BAG EGD|EGD EGD|BAG EGD|EAA ABc|
BAG EGD|EGD EGD|BAG EGD|EGG G2:|
||D|GBd ~e2 d|dgd ~B2 A|GBd ~e2 d|eaa aga|
bag agf|gfe dBG|BAG EGD|EGG G2:|
